!! J.S. Bach; Fugue from 'Prelude (Fantasia) & Fugue in d minor', BWV 549a
!! for organ.
!! Encoded from Bach Neue Ausgabe Saemtlicher Werke, pp.102-104
!! Basel: Baerenreiter Kassel, Serie IV: Orgelwerke, Band 6; 3 voices.
!! Performed duration: X:XX, tempo: quarter-note equals MM XX.X
!! (XXX, organist "Title XXX")
!! NOTE: This work is in three voices, although at bars 30-32 the upper
!!       voice disappears and a bass voice appears instead.  Also the
!!       work ends with a homophonic flourish (with as many as eight
!!       concurrent notes), this latter section has been omitted from
!!       this encoding, and the fugue deemed to end at bar 39.
**kern	**kern	**kern	**kern
*M4/4	*M4/4	*M4/4	*M4/4
=1	=1	=1	=1
1r	1r	16D	1r
.	.	16F	.
.	.	16E	.
.	.	16F	.
.	.	8D	.
.	.	8F	.
.	.	4E	.
.	.	4AA	.
=2	=2	=2	=2
1r	1r	16D	1r
.	.	16F	.
.	.	16E	.
.	.	16F	.
.	.	16E	.
.	.	16G	.
.	.	16F	.
.	.	16G	.
.	.	4F	.
.	.	4D	.
=3	=3	=3	=3
1r	1r	16F	1r
.	.	16A	.
.	.	16G	.
.	.	16A	.
.	.	16G	.
.	.	16B-	.
.	.	16A	.
.	.	16B-	.
.	.	8.A	.
.	.	16B-	.
.	.	16A	.
.	.	16G	.
.	.	16F	.
.	.	16E	.
=4	=4	=4	=4
1r	1r	16F	1r
.	.	16E	.
.	.	16F	.
.	.	16G	.
.	.	8.E	.
.	.	16D	.
.	.	8D	.
.	.	16C	.
.	.	16D	.
.	.	8.BB	.
.	.	16AA	.
=5	=5	=5	=5
1r	4AA	16A	1r
.	.	16c	.
.	.	16B	.
.	.	16c	.
.	4r	8A	.
.	.	8c	.
.	8r	4B	.
.	16EE	.	.
.	16FF#	.	.
.	8GG#	4E	.
.	16FF#	.	.
.	16GG#	.	.
=6	=6	=6	=6
1r	8AA	16A	1r
.	.	16c	.
.	8A	16B	.
.	.	16c	.
.	8G#	16B	.
.	.	16d	.
.	8E	16c	.
.	.	16d	.
.	8A	4c	.
.	16AA	.	.
.	16BB	.	.
.	8C	4A	.
.	16BB	.	.
.	16C	.	.
=7	=7	=7	=7
1r	8AA	16c	1r
.	.	16e	.
.	8Gn	16d	.
.	.	16e	.
.	8F	16d	.
.	.	16f	.
.	[8D	16e	.
.	.	16f	.
.	8D]	8.e	.
.	8C	.	.
.	.	16f	.
.	4GG#	16e	.
.	.	16d	.
.	.	16c	.
.	.	16B	.
=8	=8	=8	=8
1r	8AA	16c	1r
.	.	16B	.
.	8C	16c	.
.	.	16d	.
.	8D	8.B	.
.	8E	.	.
.	.	16A	.
.	8C#	16A	.
.	.	16Gn	.
.	8D	16F	.
.	.	16G	.
.	8GGn	8.E	.
.	8AA	.	.
.	.	16D	.
=9	=9	=9	=9
1r	4BB-	4D	16d
.	.	.	16f
.	.	.	16e
.	.	.	16f
.	8FF	4r	8d
.	8DD	.	8f
.	8AA	8r	4e
.	8r	16AA	.
.	.	16BBn	.
.	4r	8C#	4A
.	.	16BB	.
.	.	16C#	.
=10	=10	=10	=10
1r	8r	8D	16d
.	.	.	16f
.	8FF	8r	16e
.	.	.	16f
.	8GG	4r	16e
.	.	.	16g
.	8AA	.	16f
.	.	.	16g
.	8DD	8r	4f
.	8r	16D	.
.	.	16E	.
.	4r	8F	4d
.	.	16E	.
.	.	16F	.
=11	=11	=11	=11
1r	8r	8D	16f
.	.	.	16a
.	8D	8c	16g
.	.	.	16a
.	8G	8B-	16g
.	.	.	16b-
.	8E	[8G	16a
.	.	.	16b-
.	8C#	8G]	8.a
.	8D	8F	.
.	.	.	16b-
.	4E	4C#	16a
.	.	.	16g
.	.	.	16f
.	.	.	16e
=12	=12	=12	=12
1r	[4D	8D	16f
.	.	.	16e
.	.	8A	16f
.	.	.	16g
.	8D]	8G#	8.e
.	8Cn	8A	.
.	.	.	16d
.	8BB	8G#	8d
.	8AA	4A	16c
.	.	.	16d
.	8D	.	8.Bn
.	8E	8G#	.
.	.	.	16A
=13	=13	=13	=13
1r	4AA	4A	16a
.	.	.	16cc
.	.	.	16b
.	.	.	16cc
.	4r	4r	8a
.	.	.	8cc
.	2r	8r	4b
.	.	16E	.
.	.	16F#	.
.	.	8G#	4e
.	.	16F#	.
.	.	16G#	.
=14	=14	=14	=14
1r	1r	8A	16a
.	.	.	16cc
.	.	8f	16b
.	.	.	16cc
.	.	8d	16b
.	.	.	16dd
.	.	8e	16cc
.	.	.	16dd
.	.	8a	4cc
.	.	16A	.
.	.	16B	.
.	.	8c	4a
.	.	16B	.
.	.	16c	.
=15	=15	=15	=15
1r	1r	8A	16cc
.	.	.	16ee
.	.	8g	16dd
.	.	.	16ee
.	.	8f	16dd
.	.	.	16ff
.	.	8d	16ee
.	.	.	16ff
.	.	8G#	8.ee
.	.	8e	.
.	.	.	16ff
.	.	8f#	16ee
.	.	.	16dd
.	.	8g#	16cc
.	.	.	16b
=16	=16	=16	=16
1r	1r	[4a	16cc
.	.	.	16b
.	.	.	16cc
.	.	.	16dd
.	.	16a]	8.b
.	.	16d	.
.	.	[8gn	32cc#
.	.	.	32dd
.	.	8g]	16cc#
.	.	.	16a
.	.	16fn	16dd
.	.	16g	16ee
.	.	16e	8.cc#
.	.	16b-	.
.	.	16a	.
.	.	16g	16dd
=17	=17	=17	=17
1r	2r	16f	16dd
.	.	16a	16ff
.	.	16g	16ee
.	.	16a	16ff
.	.	16f	8dd
.	.	16e	.
.	.	[8d	8ff
.	4r	8d]	4ee
.	.	16c#	.
.	.	16B	.
.	8r	4c#	4a
.	16A	.	.
.	16G	.	.
=18	=18	=18	=18
1r	4F	8A	16dd
.	.	.	16ff
.	.	4d	16ee
.	.	.	16ff
.	8G	.	16ee
.	.	.	16gg
.	8A	8c#	16ff
.	.	.	16gg
.	[2D	16d	4ff
.	.	16A	.
.	.	16G	.
.	.	16A	.
.	.	16F	4dd
.	.	16G	.
.	.	16F	.
.	.	16G	.
=19	=19	=19	=19
1r	4D]	8A	16ff
.	.	.	16aa
.	.	4d	16gg
.	.	.	16aa
.	4E	.	16gg
.	.	.	16bb-
.	.	8c#	16aa
.	.	.	16bb-
.	4F	8d	8.aa
.	.	4A	.
.	.	.	16bb-
.	4C#	.	16aa
.	.	.	16gg
.	.	[8A	16ff
.	.	.	16ee
=20	=20	=20	=20
1r	4D	8A]	16ff
.	.	.	16ee
.	.	4d	16ff
.	.	.	16gg
.	[4A	.	8.ee
.	.	8cn	.
.	.	.	16dd
.	8A]	2B	[4dd
.	8A	.	.
.	4G#	.	16dd]
.	.	.	16ff
.	.	.	16ee
.	.	.	16dd
=21	=21	=21	=21
1r	4A	8e	16cc
.	.	.	16dd
.	.	4a	16cc
.	.	.	16b
.	8d	.	8.b
.	8e	8g#	.
.	.	.	16a
.	[4f	8a	16a
.	.	.	16aa
.	.	8cc#	16ggn
.	.	.	16aa
.	8f]	[4dd	16ff
.	.	.	16dd
.	8b-	.	16ee
.	.	.	16ff
=22	=22	=22	=22
1r	4.e	8dd]	16gg
.	.	.	16bb-
.	.	8dd	16aa
.	.	.	16bb-
.	.	4cc#	16ee
.	.	.	16gg
.	8a	.	16ff
.	.	.	16ee
.	16d	16dd	16ff
.	16f	16r	16aa
.	16e	8r	16gg
.	16f	.	16aa
.	16g	4r	16bb-
.	16f	.	16aa
.	16e	.	16gg
.	16d	.	16ff
=23	=23	=23	=23
1r	16c	1r	16ee
.	16e	.	16gg
.	16d	.	16ff
.	16e	.	16gg
.	16f	.	16aa
.	16a	.	16gg
.	16g	.	16ff
.	16a	.	16ee
.	8b-	.	16dd
.	.	.	16ee
.	8a	.	16cc#
.	.	.	16dd
.	16g	.	16ee
.	16a	.	16ff
.	16f	.	16ee
.	16g	.	16dd
=24	=24	=24	=24
1r	8f	1r	16cc#
.	.	.	16ee
.	8g	.	16ff
.	.	.	16gg
.	8f	.	16aa
.	.	.	16bb-
.	8e	.	16aa
.	.	.	16gg
.	16d	.	16ff
.	16f	.	16aa
.	16e	.	16gg
.	16f	.	16aa
.	8d	.	16ff
.	.	.	16aa
.	8f	.	16gg
.	.	.	16aa
=25	=25	=25	=25
1r	4e	1r	16cc#
.	.	.	16gg
.	.	.	16ff
.	.	.	16gg
.	4A	.	16cc#
.	.	.	16gg
.	.	.	16ff
.	.	.	16gg
.	16d	.	16ff
.	16f	.	16aa
.	16e	.	16gg
.	16f	.	16aa
.	16e	.	16cc#
.	16g	.	16ee
.	16f	.	16dd
.	16g	.	16ee
=26	=26	=26	=26
1r	4f	1r	16dd
.	.	.	16ff
.	.	.	16ee
.	.	.	16gg
.	4d	.	16ff
.	.	.	16aa
.	.	.	16gg
.	.	.	16bb-
.	16f	.	16aa
.	16a	.	16ff
.	16g	.	16ee
.	16a	.	16ff
.	16g	.	16ee
.	16b-	.	16gg
.	16a	.	16ff
.	16b-	.	16gg
=27	=27	=27	=27
1r	16a	1r	16cc#
.	16g	.	16a
.	16f	.	16dd
.	16g	.	16ee
.	8.e	.	8.cc#
.	16e	.	16cc#
.	8d	.	16ff
.	.	.	16g#
.	16cn	.	16a
.	16d	.	16b
.	8.B	.	8.g#
.	16A	.	16a
=28	=28	=28	=28
1r	[4A	16a	8a
.	.	16ccn	.
.	.	16b	8r
.	.	16cc	.
.	16A]	8a	8r
.	16f	.	.
.	16e	8cc	[8aa
.	16d	.	.
.	[4e	4b	16aa]
.	.	.	16aa
.	.	.	16gg#
.	.	.	16ff#
.	8e]	4e	16gg#
.	.	.	16ff#
.	8G#	.	16ee
.	.	.	16dd
=29	=29	=29	=29
1r	8A	16a	8cc
.	.	16cc	.
.	8fn	16b	4aa
.	.	16cc	.
.	8d	16b	.
.	.	16dd	.
.	8e	16cc	8gg#
.	.	16dd	.
.	8a	4ccc	16aa
.	.	.	16bb
.	8gn	.	16aa
.	.	.	16bb
.	8f	4a	16ccc
.	.	.	16aa
.	8d	.	16ggn
.	.	.	16ff
=30	=30	=30	=30
1r	16a	16cc	8ee
.	16g	16ee	.
.	16f	16dd	8r
.	16e	16ee	.
.	16f	16dd	4r
.	16a	16ff	.
.	16g#	16ee	.
.	16a	16ff	.
.	16g#	8.ee	2r
.	16b	.	.
.	16a	.	.
.	16b	16ff	.
.	16cc	16ee	.
.	16b	16dd	.
.	16a	16cc	.
.	16g#	16b	.
=31	=31	=31	=31
1r	4.a	16cc	1r
.	.	16ff	.
.	.	16cc	.
.	.	16ff	.
.	.	16b	.
.	.	16ee	.
.	[8gn	16b	.
.	.	16ee	.
.	8g]	16cc#	.
.	.	16a	.
.	16f	16b	.
.	16e	16cc#	.
.	8f	16dd	.
.	.	16aa	.
.	8b-	16dd	.
.	.	16aa	.
=32	=32	=32	=32
1r	8e	16dd	1r
.	.	16gg	.
.	8g	16dd	.
.	.	16gg	.
.	8a	16cc#	.
.	.	16gg	.
.	8A	16cc#	.
.	.	16gg	.
.	8d	16dd	.
.	.	16ff	.
.	8f	16a	.
.	.	16dd	.
.	8e	16ccn	.
.	.	16b-	.
.	8c#	16a	.
.	.	16g	.
=33	=33	=33	=33
16D	[4d	16f	1r
16F	.	16a	.
16E	.	16g	.
16F	.	16a	.
8D	16d]	8f	.
.	16A	.	.
8F	16d	8f	.
.	16A	.	.
4E	16d	8g	.
.	16G	.	.
.	16d	8g	.
.	16G	.	.
4AA	16c#	8g	.
.	16A	.	.
.	16c#	8g	.
.	16A	.	.
=34	=34	=34	=34
16D	8.A	8.f	1r
16F	.	.	.
16E	.	.	.
16F	16A	16d	.
16E	16G	16c#	.
16G	16r	16e	.
16F	8r	16d	.
16G	.	16e	.
4F	8A	16d	.
.	.	16a	.
.	8A	16d	.
.	.	16g	.
4D	8A	16d	.
.	.	16f	.
.	8G	16c#	.
.	.	16e	.
=35	=35	=35	=35
16F	8A	8d	1r
16A	.	.	.
16G	4d	8f	.
16A	.	.	.
16G	.	8e	.
16B-	.	.	.
16A	8d	[8g	.
16B-	.	.	.
8.A	2c#	16g]	.
.	.	16e	.
.	.	16f	.
16B-	.	16g	.
16A	.	16a	.
16G	.	16b-	.
16F	.	16a	.
16E	.	16g	.
=36	=36	=36	=36
8D	4.d	16f	1r
.	.	16e	.
8B-	.	16f	.
.	.	16g	.
8G	.	8.e	.
[8A	8cn	.	.
.	.	16d	.
8A]	8Bn	16d	.
.	.	8dd	.
8G#	[8b	.	.
.	.	16dd	.
8A	16b]	8cc	.
.	8a	.	.
8E	.	8b	.
.	16g#	.	.
=37	=37	=37	=37
8F	8a	16r	1r
.	.	8aa	.
8C#	[8ee	.	.
.	.	16ggn	.
8D	16ee]	8ff	.
.	16dd	.	.
8A	[8ccn	8ee	.
8G#	16cc]	8dd	.
.	16b	.	.
8A	[8a	8cc	.
8d	16a]	8.b	.
.	16a	.	.
8e	[8gn	.	.
.	.	16cc	.
=38	=38	=38	=38
8c#	16g]	[4a	1r
.	16g	.	.
8A	16f	.	.
.	16e	.	.
8d	8f	16a]	.
.	.	8b-	.
8cn	8e	.	.
.	.	[16a	.
8B-	8d	16a]	.
.	.	8g	.
8A	8c	.	.
.	.	[16f	.
8G	8B-	16f]	.
.	.	8e	.
8F	8A	.	.
.	.	[16d	.
=39	=39	=39	=39
4E	4G	16d]	2.r
.	.	16d	.
.	.	16e	.
.	.	16d	.
4AA	8A	16c#	.
.	.	16d	.
.	8G	16Bn	.
.	.	16c#	.
4D	4F	4d	.
==	==	==	==
*-	*-	*-	*-
